src/assets/outline/Ranking.svg

<svg width="24" height="24" viewBox="0 0 24 24"  xmlns="http://www.w3.org/2000/svg">
<path d="M16.2401 22.6695C15.8101 22.6695 15.2701 22.5395 14.6001 22.1395L12.3601 20.8095C12.1901 20.7095 11.8101 20.7095 11.6401 20.8095L9.40013 22.1395C7.98013 22.9795 7.12012 22.6295 6.74012 22.3495C6.36012 22.0695 5.76014 21.3495 6.13014 19.7495L6.66014 17.4395C6.70014 17.2595 6.60013 16.9195 6.47013 16.7795L4.61012 14.9195C3.61012 13.9195 3.69012 13.0495 3.83012 12.6095C3.97012 12.1695 4.41012 11.4195 5.80012 11.1795L8.19014 10.7795C8.36014 10.7495 8.63014 10.5495 8.70014 10.3995L10.0201 7.75952C10.6701 6.46952 11.5301 6.26953 11.9901 6.26953C12.4501 6.26953 13.3101 6.45952 13.9601 7.75952L15.2801 10.3995C15.3601 10.5495 15.6301 10.7495 15.7901 10.7795L18.1801 11.1795C19.5701 11.4095 20.0101 12.1695 20.1501 12.6095C20.2901 13.0495 20.3701 13.9195 19.3701 14.9195L17.5101 16.7795C17.3801 16.9095 17.2801 17.2595 17.3201 17.4395L17.8501 19.7395C18.2201 21.3495 17.6301 22.0595 17.2401 22.3395C17.0601 22.4995 16.7201 22.6695 16.2401 22.6695ZM12.0001 19.2395C12.4001 19.2395 12.8001 19.3295 13.1201 19.5195L15.3601 20.8495C15.9501 21.1995 16.3001 21.1995 16.3701 21.1395C16.4501 21.0795 16.5501 20.7495 16.4001 20.0895L15.8701 17.7895C15.7101 17.1095 15.9701 16.2295 16.4601 15.7395L18.3201 13.8795C18.6901 13.5095 18.7701 13.2195 18.7301 13.0895C18.6901 12.9595 18.4601 12.7695 17.9401 12.6895L15.5501 12.2895C14.9101 12.1795 14.2301 11.6795 13.9401 11.0995L12.6201 8.45953C12.3901 8.00953 12.1401 7.79953 11.9901 7.79953C11.8401 7.79953 11.5901 7.99953 11.3601 8.45953L10.0401 11.0995C9.75014 11.6795 9.07013 12.1795 8.43013 12.2895L6.04014 12.6895C5.52014 12.7795 5.29013 12.9595 5.25013 13.0895C5.21013 13.2195 5.29014 13.5095 5.66014 13.8795L7.52012 15.7395C8.01012 16.2295 8.27012 17.1195 8.11012 17.7895L7.58012 20.0995C7.43012 20.7695 7.53012 21.0995 7.61012 21.1495C7.69012 21.2095 8.04013 21.2095 8.62013 20.8595L10.8601 19.5295C11.2001 19.3395 11.6001 19.2395 12.0001 19.2395Z" />
<path d="M6 9.75C5.59 9.75 5.25 9.41 5.25 9V2C5.25 1.59 5.59 1.25 6 1.25C6.41 1.25 6.75 1.59 6.75 2V9C6.75 9.41 6.41 9.75 6 9.75Z" />
<path d="M18 9.75C17.59 9.75 17.25 9.41 17.25 9V2C17.25 1.59 17.59 1.25 18 1.25C18.41 1.25 18.75 1.59 18.75 2V9C18.75 9.41 18.41 9.75 18 9.75Z" />
<path d="M12 4.75C11.59 4.75 11.25 4.41 11.25 4V2C11.25 1.59 11.59 1.25 12 1.25C12.41 1.25 12.75 1.59 12.75 2V4C12.75 4.41 12.41 4.75 12 4.75Z" />
</svg>

<?xml version="1.0" encoding="UTF-8"?>
<svg width="24" height="24" viewBox="0 0 24 24" xmlns="http://www.w3.org/2000/svg">
 <path d="m16.24 22.67c-0.43 0-0.97-0.13-1.64-0.53l-2.24-1.33c-0.17-0.1-0.55-0.1-0.72 0l-2.24 1.33c-1.42 0.84-2.28 0.49-2.66 0.21s-0.97998-1-0.60998-2.6l0.53-2.31c0.04-0.18-0.06001-0.52-0.19001-0.66l-1.86-1.86c-1-1-0.92-1.87-0.78-2.31s0.58-1.19 1.97-1.43l2.39-0.4c0.17-0.03 0.44-0.23 0.51-0.38l1.32-2.64c0.65-1.29 1.51-1.49 1.97-1.49s1.32 0.18999 1.97 1.49l1.32 2.64c0.08 0.15 0.35 0.35 0.51 0.38l2.39 0.4c1.39 0.23 1.83 0.99 1.97 1.43s0.22 1.31-0.78 2.31l-1.86 1.86c-0.13 0.13-0.23 0.48-0.19 0.66l0.53 2.3c0.37 1.61-0.22 2.32-0.61 2.6-0.18 0.16-0.52 0.33-1 0.33zm-4.24-3.43c0.4 0 0.8 0.09 1.12 0.28l2.24 1.33c0.59 0.35 0.94 0.35 1.01 0.29 0.08-0.06 0.18-0.39 0.03-1.05l-0.53-2.3c-0.16-0.68 0.1-1.56 0.59-2.05l1.86-1.86c0.37-0.37 0.45-0.66 0.41-0.79s-0.27-0.32-0.79-0.4l-2.39-0.4c-0.64-0.11-1.32-0.61-1.61-1.19l-1.32-2.64c-0.23-0.45-0.48-0.66-0.63-0.66s-0.4 0.2-0.63 0.66l-1.32 2.64c-0.28996 0.58-0.96997 1.08-1.61 1.19l-2.39 0.4c-0.52 0.09-0.75001 0.27-0.79001 0.4s0.04001 0.42 0.41001 0.79l1.86 1.86c0.49 0.49 0.75 1.38 0.59 2.05l-0.53 2.31c-0.15 0.67-0.05 1 0.03 1.05 0.08 0.06 0.43001 0.06 1.01-0.29l2.24-1.33c0.34-0.19 0.74-0.29 1.14-0.29z"/>
 <path d="m6 9.75c-0.41 0-0.75-0.34-0.75-0.75v-7c0-0.41 0.34-0.75 0.75-0.75s0.75 0.34 0.75 0.75v7c0 0.41-0.34 0.75-0.75 0.75z"/>
 <path d="m18 9.75c-0.41 0-0.75-0.34-0.75-0.75v-7c0-0.41 0.34-0.75 0.75-0.75s0.75 0.34 0.75 0.75v7c0 0.41-0.34 0.75-0.75 0.75z"/>
 <path d="m12 4.75c-0.41 0-0.75-0.34-0.75-0.75v-2c0-0.41 0.34-0.75 0.75-0.75s0.75 0.34 0.75 0.75v2c0 0.41-0.34 0.75-0.75 0.75z"/>
</svg>
